!!!!SEGMENT: pl-wtm--r-144-n_noskowski-zygmunt--szkice-weglem-op-23.krn
!!!cenid: 18xx:2141
!!!COM: Noskowski, Zygmunt
!!!COM-rismID:
!!!CDT: 1846/05/02-1909/07/23
!!!CNT: Polish
!!!OTL: Szkice węglem op. 23
!!!PDT:
!!!AGN: Secular
!!!SMS-siglum: PL-Wtm
!!!SMS-shelfmark: R 144/N
!!!SMS-shelfwork: W
!!!SMS-variant:
!!!SMS-altvar:
!!!NIFC-rismSourceID: 1001149245
!!!NIFC-islandoraID:
!!!URL-pdf-islandora:
!!!URL-scan:
!!!ONB-nifc:
!!!OMD: Allegro feroce.
!!!AIN: 1 empty
!!!key:
**kern	**kern	**dynam
*part1	*part1	*part1
*staff2	*staff1	*
*Iempty	*Iforte	*
*	*I"Fortepian	*
*clefF4	*clefG2	*
*k[]	*k[]	*
*a:	*a:	*
*M3/4	*M3/4	*
=1	=1	=1
*all\right	*all\right	*
*2\left	*2\left	*
!	!LO:TX:a:t=P:problem=W źródle niektóre nuty mają caudy po lewej stronie	!
!LO:TX:a:t=P:problem=W źródle niektóre nuty mają caudy po lewej stronie	!	!
(<8qG#X/	(<8qg#X/	ff
8A\L)	8a/L)	.
(<8qG#/	(<8qg#/	.
8A\J)	8a/J)	.
2A 2E 2AA^>\	2ee 2cc 2a 2e^</	.
=2	=2	=2
8A 8D 8AA\	8ff 8dd 8a 8f\	.
4A 4D 4AA^>\	4ff 4dd 4a 4f^>\	.
8r	(>16dd\LL	.
.	16ff\JJ	.
8A 8E 8AA^>\	16ee\LL	.
.	16dd\	.
8r	16cc\	.
.	16b\JJ)	.
=3	=3	=3
(<8qG#X/	(<8qg#X/	.
8A\L)	8a/L)	.
(<8qG#/	(<8qg#/	.
8A\J)	8a/J)	.
2A 2E 2AA^>\	2ee 2cc 2a 2e^>\	.
=4	=4	=4
8A 8F 8AA\	8dd 8b 8a 8d/	.
4A 4F 4AA^>\	4dd 4b 4a 4d^>/	.
8r	(>16b\LL	.
.	16dd\JJ	.
8A 8E 8AA^>\	16cc\LL	.
.	16b\	.
8r	16cc\	.
.	16a\JJ)	.
=5	=5	=5
4B 4G#X 4E 4D\	8b/	.
.	(<4e^</	.
4r	.	.
.	16f#X/LL	.
.	16g#X/JJ	.
8A 8E 8C^>\	16a/LL	.
.	16b/	.
8r	16cc/	.
.	16a/JJ)	.
!!LO:LB:g=original
=6	=6	=6
4d 4B 4Gn 4F^>\	8dd\	.
.	(>4g^</	.
4r	.	.
.	16a/LL	.
.	16b/JJ	.
8c 8G 8E^>\	16cc\LL	.
.	16dd\	.
8r	16ee\	.
.	16cc\JJ)	.
=7	=7	=7
.	(<8qa#X/	.
8B 8F#X 8D#X\	8b\L)	.
8r	8b\J	.
8BB 8BBB^</	8ff#X 8dd#X 8b 8f#X^>\	.
8r	8r	.
8D# 8DD#X^</	8bb 8ff# 8b^>\	.
8r	8r	.
=8	=8	=8
8E 8EE^</	8gg#X 8ee 8b 8g#X^>\	.
8r	8r	.
8D#X 8DD#X/	8bb 8ff#X 8b\	.
8r	8r	.
8E 8EE/	8gg# 8ee 8b 8g#\	.
8r	8r	.
=9	=9	=9
8D#X 8DD#X/	8bb 8ff#X 8b\	.
8r	8r	.
8E 8EE/	8gg#X 8ee 8b 8g#X\	.
8r	8r	.
8D# 8DD#/	8bb 8ff# 8b\	.
8r	8r	.
!!LO:LB:g=original
=10	=10	=10
8E 8EE/	8gg#X 8ee 8b 8g#X\	.
8r	8r	.
4E 4BB 4EE/	4ee 4b 4g# 4e/	sfz
4r;>	4r;>	.
*clefG2	*	*
=11	=11	=11
!LO:TX:a:it=Tromba.	!	!
(>2.b &(<2.B^</	2.r	f
=12	=12	=12
!LO:S:s=1:note:problem=note-level slur	!	!
!LO:S:s=2:note:problem=note-level slur	!	!
4g#X) 4G#X/&)	8bbL 8gg#X'>\	.
.	8bbJ 8gg#'>\	.
4r	4eee 4gg#^>\	.
4r	4r	.
=13	=13	=13
(>2.b &(<2.B^>/	2.r	.
=14	=14	=14
!LO:S:s=1:note:problem=note-level slur	!	!
!LO:S:s=2:note:problem=note-level slur	!	!
4f) 4F/&)	8ddL 8a'>\	.
.	8ddJ 8a'>\	.
4r	4aa 4dd 4a^>\	.
4r	4r	.
=15	=15	=15
(>2.b &(<2.B^</	2.r	.
*clefF4	*	*
!!LO:LB:g=original
=16	=16	=16
!LO:S:s=1:note:problem=note-level slur	!	!
!LO:S:s=2:note:problem=note-level slur	!	!
4e) 4E\&)	8gg#XL 8ee\	.
.	8gg# 8ee\	mf
4r	8gg# 8ee\	.
.	8gg# 8ee\	.
4r	8gg# 8ee\	.
.	8gg#J 8ee\	.
=17	=17	=17
2.r	8bbL 8gg#X\	<
.	8bb 8gg#\	.
.	8bb 8gg#\	.
.	8bb 8gg# 8b\	.
.	8bb 8gg# 8b\	.
.	8bbJ 8gg# 8b\	.
=18	=18	=18
!LO:TX:b:BI:t=marcato	!	!
!	!	!LO:DY:b:rj
2.f 2.F^>\	8dddL 8bb 8dd\	f
.	8ddd 8bb 8dd\	.
.	8ddd 8bb 8dd\	.
.	8ddd 8bb 8dd\	.
.	8ddd 8bb 8dd\	.
.	8dddJ 8bb 8dd\	.
=19	=19	=19
*	*rep	*
2.b 2.B^<\	8dddL 8bb 8dd\	.
.	8ddd 8bb 8dd\	.
.	8ddd 8bb 8dd\	.
.	8ddd 8bb 8dd\	.
.	8ddd 8bb 8dd\	.
.	8dddJ 8bb 8dd\	.
*	*Xrep	*
=20	=20	=20
*	*rep	*
2.f 2.F^<\	8dddL 8bb 8dd\	.
.	8ddd 8bb 8dd\	.
.	8ddd 8bb 8dd\	.
.	8ddd 8bb 8dd\	.
.	8ddd 8bb 8dd\	.
.	8dddJ 8bb 8dd\	.
*	*Xrep	*
!!LO:LB:g=original
=21	=21	=21
2.b 2.B^<\	8dddL 8bb 8dd\	.
.	8ddd 8bb 8dd\	.
.	8ddd 8bb 8dd\	.
.	8ddd 8bb 8dd\	.
.	8ddd 8bb 8dd\	.
.	8dddJ 8bb 8dd\	.
=22	=22	=22
*	*rep	*
2.f#X 2.F#X^>\	8dddL 8bb 8dd\	.
.	8ddd 8bb 8dd\	.
.	8ddd 8bb 8dd\	.
.	8ddd 8bb 8dd\	.
.	8ddd 8bb 8dd\	.
.	8dddJ 8bb 8dd\	.
*	*Xrep	*
=23	=23	=23
*	*rep	*
2.b 2.B^<\	8dddL 8bb 8dd\	.
.	8ddd 8bb 8dd\	.
.	8ddd 8bb 8dd\	.
.	8ddd 8bb 8dd\	.
.	8ddd 8bb 8dd\	.
.	8dddJ 8bb 8dd\	.
*	*Xrep	*
=24	=24	=24
*	*rep	*
2.B 2.BB^>\	8dddL 8bb 8dd\	.
.	8ddd 8bb 8dd\	.
.	8ddd 8bb 8dd\	.
.	8ddd 8bb 8dd\	.
.	8ddd 8bb 8dd\	.
.	8dddJ 8bb 8dd\	.
*	*Xrep	*
=25	=25	=25
*	*rep	*
2.f#X 2.F#X^>\	8dddL 8bb 8dd\	.
.	8ddd 8bb 8dd\	.
.	8ddd 8bb 8dd\	.
.	8ddd 8bb 8dd\	.
.	8ddd 8bb 8dd\	.
.	8dddJ 8bb 8dd\	.
*	*Xrep	*
=26	=26	=26
*	*rep	*
[>2.g#X [<2.G#X^>\	8dddL 8bb 8dd\	.
.	8ddd 8bb 8dd\	.
.	8ddd 8bb 8dd\	.
.	8ddd 8bb 8dd\	.
.	8ddd 8bb 8dd\	.
.	8dddJ 8bb 8dd\	.
*	*Xrep	*
=27	=27	=27
*	*rep	*
2.g#] 2.G#\]	8dddL 8bb 8dd\	.
.	8ddd 8bb 8dd\	.
.	8ddd 8bb 8dd\	.
.	8ddd 8bb 8dd\	.
.	8ddd 8bb 8dd\	.
.	8dddJ 8bb 8dd\	.
*	*Xrep	*
!!LO:PB:g=original
=28	=28	=28
[>2.e [<2.E\	8fffL 8ddd 8ff\	.
.	8fff 8ddd 8ff\	.
.	8fff 8ddd 8ff\	<
.	8fff 8ddd 8ff\	.
.	8fff 8ddd 8ff\	[
.	8fffJ 8ddd 8ff\	.
=29	=29	=29
*	*rep	*
2.e_> 2.E\_<	8fffL 8ddd 8ff\	.
.	8fff 8ddd 8ff\	.
.	8fff 8ddd 8ff\	.
.	8fff 8ddd 8ff\	.
.	8fff 8ddd 8ff\	.
.	8fffJ 8ddd 8ff\	.
*	*Xrep	*
=30	=30	=30
4e] 4E\]	4fff 4ddd 4ff^>\	.
4r	8r	.
!	!LO:TX:b:Bi:t=con forza	!
.	8ddd\L	.
4r	8bb\	.
.	8ccc\J	.
=31	=31	=31
2.r	4ddd^>\	.
.	8r	.
.	16ddd\LL	.
.	16ccc\JJ	.
.	16bb\LL	.
.	16aa\	.
.	16bb\	.
.	16gg#X\JJ	.
!!LO:LB:g=original
=32	=32	=32
2.r	4bb^>\	.
.	8r	.
.	16bb\LL	.
.	16aa\JJ	.
.	16gg#X\LL	.
.	16ff#X\	.
.	16gg#\	.
.	16ee\JJ	.
=33	=33	=33
2.r	4bb^>\	.
.	8r	.
.	16bb\LL	.
.	16aa\JJ	.
.	16gg#X\LL	.
.	16ff#X\	.
.	16gg#\	.
.	16ee\JJ	.
=34	=34	=34
2.r	16bb\LL	.
.	16aa\	.
.	16gg#X\	.
.	16ee\JJ	.
.	16gg#\LL	.
.	16ff#X\	.
.	16ee\	.
.	16b\JJ	.
.	16ee\LL	.
.	16cc\	.
.	16b\	.
.	16a\JJ	.
=35	=35	=35
2.r	16g#X/LL	.
.	16f#X/	.
.	16e/	.
.	16f#/JJ	.
.	16g#/LL	.
.	16a/	.
.	16b/	.
.	16cc/JJ	.
.	16dd\LL	.
.	16ee\	.
.	16ff#X\	.
.	16gg#X\JJ	.
!!LO:LB:g=original
=36	=36	=36
!	!	!LO:DY:b:rj
8A\L	8aaL 8a\	ff
8A\J	8aaJ 8a\	.
2A 2E 2AA^</	2eee 2ccc 2aa 2ee^>\	.
=37	=37	=37
8A 8D 8AA\	8fff 8ddd 8aa 8ff\	.
4A 4D 4AA^>\	4fff 4ddd 4aa 4ff^>\	.
8r	16ddd\LL	.
.	16fff\JJ	.
8A 8E 8C 8AA\	16eee\LL	.
.	16ddd\	.
8r	16ccc\	.
.	16bb\JJ	.
=38	=38	=38
8A\L	8aa\L	.
8A\J	8aaJ 8a\	.
2A 2E 2AA^>\	2eee 2ccc 2aa 2ee^>\	.
=39	=39	=39
8A 8F 8AA\	8ddd 8bb 8aa 8dd\	.
4A 4F 4AA^>\	4ddd 4bb 4aa 4dd^>\	.
8r	16bb\LL	.
.	16ddd\JJ	.
8A 8E 8AA\	16ccc\LL	.
.	16bb\	.
8r	16ccc\	.
.	16aa\JJ	.
!!LO:LB:g=original
=40	=40	=40
8D 8DD/	8bb\	.
8r	4ee^>\	.
8B 8G#X 8E 8D\	.	.
8r	16ff#X\LL	.
.	16gg#X\JJ	.
8A 8E 8C\	16aa\LL	.
.	16bb\	.
8r	16ccc\	.
.	16aa\JJ	.
=41	=41	=41
8d 8A 8F\	8ddd\	.
8r	4aa^>\	.
8c#X 8A 8Gn 8E\	.	.
8r	16bb\LL	.
.	16ccc#X\JJ	.
8d 8A 8F 8D\	16ddd\LL	.
.	16eee\	.
8r	16fff\	.
.	16ddd\JJ	.
=42	=42	=42
8DL 8DD/	8bbL 8aa 8ff 8b\	.
8DJ 8DD/	8bbJ 8aa 8ff 8b\	.
4E 4EE/	4ccc#X 4aa 4gg 4cc#X^>\	.
4A 4AA^</	4r	.
=43	=43	=43
8GL 8GG/	8eeeL 8ccc#X 8aa 8ee\	.
8GJ 8GG/	8eeeJ 8ccc# 8aa 8ee\	.
4F 4FF/	4ddd 4aa 4dd^>\	.
4A 4AA^</	4r	.
!!LO:LB:g=original
=44	=44	=44
8FL 8FF/	8dddL 8aa 8dd\	.
8FJ 8FF/	8dddJ 8aa 8dd\	.
4E 4EE/	4eee 4ccc#X 4gg 4ee^>\	.
4A 4AA^</	4r	.
=45	=45	=45
8C#XL 8CC#X/	8gggL 8eee 8aa\	.
8C#J 8CC#/	8gggJ 8eee 8aa\	.
4D 4DD/	4fff 4ddd 4aa\	.
4r	4r	.
=46	=46	=46
!	!LO:TX:b:Bi:t=Clar.	!
2.r	[>2.aa\	.
=47	=47	=47
2.r	8aa\L]	.
.	(>8gg\	.
.	8ff\	.
.	8ee\	.
.	8gg\	.
.	8ff\J	.
=48	=48	=48
2.r	8cc#X\L	.
.	8dd\	.
.	8ee\	.
.	8dd\	.
.	8a\	.
.	8g\J	.
=49	=49	=49
2.r	8e/L	.
.	8f/	.
.	8g/	.
.	8f/	.
.	8d/	.
.	8c/J	.
*	*clefF4	*
=50	=50	=50
2.r	8B\L	.
.	8A\	.
.	8F\	.
.	8E\	.
.	8G\	.
.	8F\J	.
!!LO:PB:g=original
=51	=51	=51
2.r	8E\L	>
.	8D\J	.
.	[<2C#X/	.
=52	=52	=52
2.r	4C#/]	.
.	4E\	.
.	4D\)	]
=53	=53	=53
!	!	!LO:DY:b:rj
2.r	[>2.D\	p
=54	=54	=54
8BBL 8BBB'</	2.D\_>	pp
8BBJ 8BBB'</	.	.
4FF 4FFF/	.	.
4r	.	.
=55	=55	=55
8BBL 8BBB/	2.D\_>	.
8BBJ 8BBB/	.	.
4FF 4FFF/	.	.
4r	.	.
=56	=56	=56
8BBL 8BBB/	(>2D\]	.
8BBJ 8BBB/	.	.
4EE 4EEE/	.	.
4r	4D#X\	.
=57	=57	=57
2.r	4E\	.
.	4G\	.
.	4F\	.
=58	=58	=58
2.r;>	2E;>\)	.
.	4r	.
*	*clefG2	*
!!LO:LB:g=original
=59||	=59||	=59||
!!!OMD: Moderato
*M2/4	*M2/4	*
!	!	!LO:DY:b:rj
8A 8E 8AA\	8e 8c/	p
4A 4E 4AA\	4e 4c/	.
8A 8E 8AA\	8e 8c/	.
=60	=60	=60
8A 8E 8AA\	8e 8c/	.
4A 4E 4AA\	4e 4c/	.
8A 8E 8AA\	8e 8c/	.
=61	=61	=61
!	!LO:TX:a:i:t=Tromba solo	!
8A 8E 8AA\	8e 8c/	.
4A 4E 4AA\	4e 4c/	.
8A 8E 8AA\	8a 8c/	.
=62	=62	=62
*	*^	*
8A 8F 8AA\	8.a/L	8d\	.
4A 4F 4AA\	.	4d\	.
.	16g#X/Jk	.	.
.	8a/L	.	.
8A 8F 8AA\	8b/J	8d\	.
=63	=63	=63	=63
8A 8E 8AA\	8.cc/L	8c\	.
4A 4E 4AA\	.	4c\	.
.	16b/Jk	.	.
.	8a/L	.	.
8A 8E 8AA\	8g#X/J	8d\	.
=64	=64	=64	=64
8A 8E 8AA\	8b/	8c\	.
4A 4E 4AA\	4a/	4c\	.
8A 8E 8AA\	8r	8c\	.
!!LO:LB:g=original
*	*v	*v	*
=65	=65	=65
8A 8E 8AA\	8e 8c/	.
4A 4E 4AA\	4e 4c/	.
8A 8E 8AA\	8a 8c/	.
=66	=66	=66
8A 8F 8AA\	8.ccL 8.a/	.
4A 4F 4AA\	.	.
.	16bJk 16g#X/	.
.	8ccL 8a\	.
8A 8F 8AA\	8ddJ 8b\	.
=67	=67	=67
8A 8E 8AA\	8.eeL 8.cc\	.
4A 4E 4AA\	.	.
.	16ddJk 16b\	.
.	8ccL 8a/	.
8A 8E 8AA\	8bJ 8g#X/	.
=68	=68	=68
8A 8E 8AA\	8dd 8b\	.
4A 4E 4AA\	4cc 4a\	.
8A 8E 8AA\	8r	.
=69	=69	=69
8A 8F#X 8BB\	8b 8d#X/	.
4A 4F# 4BB\	4b 4d#/	.
8A 8F# 8BB\	8a 8d#/	.
=70	=70	=70
8B 8E 8BB\	8g#XL 8e/	.
4B 4E 4BB\	(<16g#L 16e/	.
.	16aJJ 16f#X/	.
.	4b 4g#/)	.
8B 8E 8BB\	.	.
!!LO:LB:g=original
=71	=71	=71
8A 8F#X 8BB\	8f#XL 8d#X/	.
4A 4F# 4BB\	16f#L 16d#'</	.
.	16g#XJJ 16e'</	.
.	16aLL 16f#'</	.
.	16g# 16e'</	.
8A 8F# 8BB\	16a 16f#'</	.
.	16f#JJ 16d#'</	.
=72	=72	=72
8B 8E 8BB\	8g#X 8e/	.
4B 4E 4BB\	4b 4g#/	.
8G#X 8E 8BB\	8r	.
=73	=73	=73
8A 8F#X 8BB\	8b 8d#X/	.
4A 4F# 4BB\	4b 4d#/	.
8A 8F# 8BB\	8a 8d#/	.
=74	=74	=74
8B 8E 8BB\	8g#XL 8e/	.
4B 4E 4BB\	(<16g#L 16e/	.
.	16b/JJ)	.
.	4ee 4g#X\	.
8B 8E 8BB\	.	.
=75	=75	=75
4B 4F#X 4BB\	8.dd#XL 8.a\	.
.	16ee\Jk	.
4r	8ff#X\L	.
.	8bJ 8a\	.
=76	=76	=76
8B 8E\	2ee 2g#X\	<[
4B 4E\	.	.
8B 8E 8D\	.	.
!!LO:LB:g=original
=77	=77	=77
8A 8E 8C\	8ee 8a\	mf
4A 4E 4C\	4ff 4a\	.
8A 8E 8C\	8ee 8a\	.
=78	=78	=78
8D 8DD/	8.eeL 8.cc\	.
4B 4F 4D\	.	.
.	16ddJk 16b\	.
.	8bL 8f/	.
8B 8F 8D\	8fJ 8d/	.
=79	=79	=79
8E 8EE/	8eL 8d/	.
4B 4E\	16g#XL 16e/	.
.	16aJJ 16f#X/	.
.	8bL 8g#/	.
8B 8G#X 8E\	16ccL 16a/	.
.	16ddJJ 16b/	.
=80	=80	=80
8AA/	8dd 8b\	.
4c 4A 4E\	4cc 4a\	.
8c 8A 8E\	8r	.
=81	=81	=81
8AA/	8cc 8f/	p
4c 4F\	4dd 4f/	.
8c 8F\	8cc 8f/	.
=82	=82	=82
8GG/	8.ccL 8.a/	.
4B-X 4D\	.	.
.	16b-XJk 16g/	.
.	8gL 8d/	.
8G 8D\	8dJ 8B-X/	.
!!LO:PB:g=original
=83	=83	=83
8CC/	8cL 8B-X/	.
4B-X 4C\	16eL 16c/	.
.	16fJJ 16d/	.
.	8gL 8e/	.
8B- 8E 8C\	16aL 16f/	.
.	16b-XJJ 16g/	.
=84	=84	=84
8FF/	8b-X 8g/	.
4A 4F 4C\	4a 4f/	.
8A 8C\	8r	.
=85	=85	=85
8DD\L	8a 8f/	.
8FJ 8BBn\	4bn 4Bn/	.
8DD\L	.	.
8FJ 8BB\	8a 8f/	.
=86	=86	=86
8EE\L	8b 8c/	.
8AJ 8C\	4a 4e/	.
8EE\L	.	.
8AJ 8C\	8cc 8c/	.
=87	=87	=87
8EE/	8.bL 8.d/	.
4G#X 4E\	.	.
.	16g#X/Jk	.
.	8e/L	.
8B 8E\	16ddL 16f#X/	.
.	16g#X/JJ	.
!!LO:LB:g=original
=88	=88	=88
8AA/	8cc 8a/	.
4A 4E\	4a 4c/	.
8A 8E\	8r	.
=89	=89	=89
8DD\L	8a 8f/	.
8FJ 8BB\	4b 4B/	.
8DD\L	.	.
8FJ 8BB\	8a 8f/	.
=90	=90	=90
8EE\L	8b 8c/	.
8AJ 8C\	4a 4e/	.
8EE/	.	.
8r	8ff 8a\	.
=91	=91	=91
4B 4E\	8.eeL 8.g#X\	.
!	!LO:TX:b:Bi:t=riten.	!
.	16ddJk 16f\	.
4r	8bL 8d/	.
.	8ccJ 8e/	.
=92||	=92||	=92||
!!!OMD: Allegretto moderato
8AA'>\L	4a 4c/	.
8A'>\J	.	.
8G'>\L	4r	.
8F\J	.	.
=93	=93	=93
(>16E\LL	4r	.
16F\	.	.
16E\	.	.
16D\JJ)	.	.
4C/	8a'>\L	.
.	8aa'>\J	.
!!LO:LB:g=original
=94	=94	=94
8D\L	8gg'>\L	.
8dJ 8A\	8ff'>\J	.
8GG#X\L	(>16ee\LL	.
.	16ff\	.
8BJ 8E\	16ee\	.
.	16dd\JJ)	.
=95	=95	=95
8AA\L	8cc'>\L	.
8cJ 8E\	8a'>\	.
4r	8cc'>\	<
.	8dd'>\J	[
=96	=96	=96
!	!	!LO:DY:b:rj
8E\L	8ee'>\L	mf
8g#XJ 8B\	8eee'>\J	.
8F#X\L	8ddd#X'>\L	.
8d#XJ 8A\	8ccc#X'>\J	.
=97	=97	=97
8G#X\L	(>16bb\LL	.
.	16ccc#X\	.
8eJ 8B\	16bb\	.
.	16aa\JJ	.
4r	8gg#X\L)	.
.	8ee'>\J	.
=98	=98	=98
8B 8BB\	8gg#XL 8ee 8b'>\	.
8r	8aa'>\J	.
8D#XL 8DD#X'</	8bbL 8ff#X 8b'>\	.
8F#XJ 8FF#X'</	8dd#X'>\J	.
=99	=99	=99
8G#XL 8GG#X/	8ee 8b'>\	.
8A 8AA/	8r	.
8G# 8GG#/	8gg#XL 8ee 8b'>\	.
8EJ 8EE/	8aa'>\J	.
!!LO:LB:g=original
=100	=100	=100
8D#XL 8DD#X/	4bb 4ff#X 4b\	.
8C#XJ 8CC#X/	.	.
8BBL 8BBB/	4bb 4dd#X 4b\	.
8F#XJ 8FF#X/	.	.
=101	=101	=101
8G#XL 8GG#X/	4bb 4ee 4b\	.
8F#XJ 8FF#X/	.	.
8EL 8EE/	8bb\L	.
8C#XJ 8CC#X/	8ee\J	.
=102	=102	=102
4BB 4BBB/	(>16dd#X\LL	.
.	16ee\	.
.	16dd#\	.
.	16cc#X\JJ	.
4B 4A 4D#X\	8b\L)	.
.	8ff#X'>\J	.
=103	=103	=103
4B 4G#X 4E\	8gg#X'>\L	.
.	8ee'>\J	.
4E 4EE/	8gg#L 8ee 8g#X'>\	.
.	8aaJ 8a'>\	.
=104	=104	=104
8DnL 8DDn/	4bb 4ffn 4b\	.
8C#XJ 8CC#X/	.	.
8DL 8DD/	4bb 4ff 4b\	.
8GGJ 8GGG/	.	.
=105	=105	=105
8EL 8EE/	4ccc 4gg 4cc\	.
8D 8DD/	.	.
8CJ 8CC/	8ee\L	.
8r	8ff\J	.
!!LO:LB:g=original
=106	=106	=106
4G 4F 4BB\	(>16gg\LL	.
.	16aa\	.
.	16gg\	.
.	16ff\JJ	.
4r	8ee\L)	.
.	8dd'>\J	.
=107	=107	=107
!	!	!LO:DY:b:rj
8C\L	8cc'>\L	f
8eJ 8G\	8ccc'>\J	.
8C\L	8bb'>\L	.
8fJ 8A\	8aa'>\J	.
=108	=108	=108
8C\L	(>16gg\LL	.
.	16aa\	.
8eJ 8G\	16gg\	.
.	16ee\JJ	.
8C\L	8cc\L)	.
8eJ 8G\	8dd'>\J	.
=109	=109	=109
8C\L	8ee'>\L	.
8eJ 8G\	8ff'>\J	.
8C\L	8gg'>\L	.
8dJ 8G\	8b'>\J	.
=110	=110	=110
8C\L	8cc'>\L	.
8eJ 8G\	8dd'>\	.
8AA\L	8ee'>\	.
8cJ 8F#X 8D\	8ff#X'>\J	.
=111	=111	=111
8D 8GG/	16ggLL 16dd 16b\	.
.	16g\	.
4D\	16gg 16dd 16b\	.
.	16g\JJ	.
.	16ggLL 16dd 16b\	.
.	16g\	.
8G\	16dd 16b\	.
.	16g\JJ	.
!!LO:PB:g=original
=112	=112	=112
8.G\L	16ddLL 16cc 16a/	.
.	16d/	.
.	16dd 16cc 16a/	.
16F#X\Jk	16d/JJ	.
8G\L	16ddLL 16cc 16a/	.
.	16d/	.
8A\J	16dd 16cc 16f#X/	.
.	16d/JJ	.
=113	=113	=113
8.B\L	16r	.
.	16d/LL	.
.	16dd 16b 16g/	.
16A\Jk	16d/JJ	.
8G\L	16ddLL 16b 16g/	.
.	16d/	.
8F#X\J	16dd 16cc 16a/	.
.	16d/JJ	.
=114	=114	=114
8A\	16r	.
.	(>16d/LL	.
4G^>\	16dd 16b 16g/	.
.	16d/JJ	.
.	8dd 8b 8g\)	.
8A\	8r	.
=115	=115	=115
8A\	16r	.
.	(>16d/LL	.
4G^>\	16dd 16b 16g/	.
.	16d/JJ	.
.	8dd 8b 8g/)	.
8A\	8r	.
=116	=116	=116
8c\	16r	.
.	(>16g\LL	.
4B^>\	16gg 16ff 16dd\	.
.	16g\JJ	.
.	8gg 8ff 8dd\)	.
8c\	8r	.
=117	=117	=117
8c\	16r	.
.	(>16g/	.
4B^>\	8gg 8ff 8dd\)	.
.	8r	.
8r	8d/	.
!!LO:LB:g=original
=118	=118	=118
!	!	!LO:DY:b:rj
4G 4D 4GG\	8.aL 8.f 8.B^>/	p
.	16g/Jk	.
4G 4D 4GG\	8.ccL 8.f 8.d^>/	.
.	16b/Jk	.
=119	=119	=119
4G 4D 4GG\	8eeL 8b 8f'>\	.
.	8cc#X'>\J	.
4r	(>16dd\LL	<
.	16ee\J)	.
.	8ff'>\J	.
=120	=120	=120
4G 4D 4GG\	(>8.aaL 8.ff 8.b^>\	.
.	16gg\Jk)	.
4G 4D 4GG\	(>8.aaL 8.ff 8.b^>\	.
.	16gg\Jk)	.
=121	=121	=121
4G 4D 4GG\	(>8.aaL 8.ff 8.b^>\	.
.	16gg\Jk)	.
4G 4D 4GG\	(>8.aaL 8.ff 8.b^>\	.
.	16gg\Jk)	.
=122	=122	=122
4C 4CC^</	8ccc 8ee 8cc\	f
.	8r	.
4r	4g 4e 4c 4G^>/	.
=123	=123	=123
!	!LO:TX:a:Bi:t=tenuto	!
4C 4CC^>/	4r	.
4r	4g 4e 4c 4G^</	.
!!LO:LB:g=original
=124	=124	=124
4C 4CC/	16gLL 16e 16c 16G^>/	.
.	16gJ 16e 16c 16G/	.
.	8gJ 8e 8c 8G/	.
4C 4CC/	8r	.
.	8g 8e 8c 8G/	.
=125	=125	=125
4C 4CC/	16gLL 16e 16c 16G^>/	.
.	16gJ 16e 16c 16G/	.
.	8gJ 8e 8c 8G/	.
4C 4CC/	8r	.
!	!LO:TX:a:Bi:t=marcato e risoluto.:dur=5es:ext=s:problem=text with extention lines	!
.	16G/LL	.
.	16A/JJ	.
=126	=126	=126
8CC/L	16B/LL	.
.	16c/	.
8DJ 8GG/	16d/	.
.	16e/JJ	.
8CC/L	8f/L	.
8DJ 8GG/	8f/J	.
=127	=127	=127
8CC/L	8e/L	.
!	!LO:TUP:a:problem=klamra łukowa	!
8EJ 8GG/	24e/L	.
.	24f/	.
.	24e/JJ	.
8CC/L	8d/L	.
8EJ 8GG/	8c/J	.
=128	=128	=128
8CC/L	8B/L	.
!	!LO:TUP:a:problem=klamra łukowa	!
8FJ 8GG/	24B/L	.
.	24c/	.
.	24B/JJ	.
8CC/L	8A/L	.
8FJ 8GG/	8G/J	.
!!LO:LB:g=original
=129	=129	=129
8CC/L	16B^</LL	.
.	16A/JJ	.
8EJ 8GG/	4G/	.
8CC/L	.	.
8EJ 8GG/	16G/LL	.
.	16A/JJ	.
=130	=130	=130
8CC/L	16B/LL	.
.	16c/	.
8DJ 8GG/	16d/	.
.	16e/JJ	.
8CC/L	8f/L	.
8DJ 8GG/	8f/J	.
=131	=131	=131
8CC/L	8e/L	.
!	!LO:TUP:a:problem=klamra łukowa	!
8EJ 8GG/	24e/L	.
.	24f/	.
.	24e/JJ	.
8CC/L	8d/L	.
8EJ 8GG/	8c/J	.
=132	=132	=132
8CC/L	8B/L	.
!	!LO:TUP:a:problem=klamra łukowa	!
8FJ 8GG/	24c/L	.
.	24d/	.
.	24c/JJ	.
8CC/L	8A/L	.
8FJ 8GG/	8B/J	.
=133	=133	=133
8CC/L	16e^>/LL	.
.	16d/JJ	.
8EJ 8GG/	4c/	.
8CC/	.	.
!	!	!LO:DY:b:rj
8r	(<16g/LL	mp
.	16a/JJ)	.
!!LO:LB:g=original
=134	=134	=134
!	!LO:TX:a:Bi:t=leggiero	!
8D\L	(>16b\LL	.
.	16cc\	.
8BJ 8G 8F\	16dd\	.
.	16ee\JJ	.
8GG\L	8ff\L)	.
8BJ 8G 8F\	8ff'>\J	.
=135	=135	=135
8C\L	8ee\L	.
!	!LO:TUP:a:problem=klamra łukowa	!
8cJ 8G 8E\	24ee\L	.
.	24ff\	.
.	24ee\JJ	.
8GG\L	8dd'>\L	.
8cJ 8G 8E\	8cc'>\J	.
=136	=136	=136
8D\L	8b\L	.
!	!LO:TUP:a:problem=klamra łukowa	!
8BJ 8G 8F\	24b\L	.
.	24cc\	.
.	24b\JJ	.
8GG\L	8a'</L	.
8BJ 8G 8F\	8g'</J	.
=137	=137	=137
8C\L	(<16b/LL	.
.	16a/JJ	.
8cJ 8G 8E\	4g/)	.
8GG\L	.	.
8cJ 8G 8E\	(>16g/LL	.
.	16a/JJ	.
=138	=138	=138
8D\L	16b\LL	.
.	16cc\	.
8BJ 8G 8F\	16dd\	.
.	16ee\JJ)	.
8GG\L	8ff'>\L	.
8BJ 8G 8F\	8ff'>\J	.
!!LO:PB:g=original
=139	=139	=139
8GG#X\L	8ee\L	.
!	!LO:TUP:a:problem=klamra łukowa	!
8BJ 8E\	24ee\L	.
.	24ff\	.
.	24ee\JJ	.
8AA/	8cc\L	.
8r	(>16b\L	<
.	16cc#X\JJ	.
=140	=140	=140
8BB\L	16dd#X\LL	.
.	16ee\	.
8d#XJ 8B 8A\	16ff#X\	.
.	16gg#X\JJ	.
8BB\L	8aa\L)	.
8d#J 8B 8A\	8aa'>\J	.
=141	=141	=141
!	!	!LO:DY:b:rj
8E\L	8gg#X\L	mf
!	!LO:TUP:a:problem=klamra łukowa	!
8eJ 8B 8G#X\	24gg#\L	.
.	24aa\	.
.	24gg#\JJ	.
4r	8ee\L	.
.	(>16ff#X\L	.
.	16gg#\JJ	.
=142	=142	=142
8E\L	8aa\L)	.
!	!LO:TUP:a:problem=klamra łukowa	!
8eJ 8c 8A\	24aa\L	.
.	24bb\	.
.	24aa\JJ	.
4r	16ff#X'>\LL	.
.	16gg#X'>\	.
.	16aa'>\	.
.	16ccc'>\JJ	.
=143	=143	=143
8E\L	8bb>'\L	.
.	(<8qddd#X/	.
8eJ 8B 8G#X\	8eee'>\J)	.
8E\L	(>16ccc\LL	.
.	16bb\J	.
8eJ 8c 8A\	8aa\J)	.
!!LO:LB:g=original
=144	=144	=144
8E\L	8gg#X\L	.
.	(<8qaa#X/	.
8eJ 8B 8G#X\	8bb\J)	.
8E\L	(>16aan\LL	.
.	16gg#\J	.
8eJ 8c 8A\	8ff#X\J)	.
=145	=145	=145
8E\L	8ee'>\L	.
.	(<8qddd#X/	.
8eJ 8B 8G#X\	8eee\J)	.
8E\L	(>16ccc\LL	.
.	16bb\J	.
8eJ 8c 8A\	8aa\J)	.
=146	=146	=146
8E\L	8gg#X'>\L	.
.	(<8qaa#X/	.
8eJ 8B 8G#X\	8bb\J)	.
8E\L	(>16aan\LL	.
.	16gg#\J	.
8eJ 8c 8A\	8ff#X\J)	.
=147	=147	=147
4e 4B 4G#X 4E\	8ee\	.
!	!	!LO:HP:b:Bi:t=cresc.
.	4eee 4ee\	<
4r	.	.
.	[>8ee\	.
=148	=148	=148
4e 4B 4G#X 4E\	8ee\]	.
.	4eee 4ee\	.
4r	.	.
.	[>8ee\	.
=149	=149	=149
4e 4B 4G#X 4E\	8ee\]	.
.	4bb\	.
4r	.	.
.	[>8eee [<8ee\	.
!!LO:LB:g=original
=150	=150	=150
2r	8eee] 8ee\]	.
.	4eee 4ee\	.
!	!LO:TX:a:Bi:t=marcato	!
.	16ggn\LL	.
.	16aa\JJ	.
=151	=151	=151
!	!	!LO:DY:b:rj
8D\L	16bb\LL	ff
.	16ccc\	.
8BJ 8G 8F\	16ddd\	.
.	16eee\JJ	.
8GG\L	8fff\L	.
8BJ 8G 8F\	8fff\J	.
=152	=152	=152
8C\L	8eee\L	.
!	!LO:TUP:a:problem=klamra łukowa	!
8cJ 8G 8E\	24eee\L	.
.	24fff\	.
.	24eee\JJ	.
8GG\L	8ddd\L	.
8cJ 8G 8E\	8ccc\J	.
=153	=153	=153
8D\L	8bb\L	.
!	!LO:TUP:a:problem=klamra łukowa	!
8BJ 8G 8F\	24bb\L	.
.	24ccc\	.
.	24bb\JJ	.
8GG\L	8aa\L	.
8BJ 8G 8F\	8gg\J	.
=154	=154	=154
8C\L	16bb^>\LL	.
.	16aa\JJ	.
8cJ 8G 8E\	4gg\	.
8GG\L	.	.
8cJ 8G 8E\	16gg\LL	.
.	16aa\JJ	.
!!LO:LB:g=original
=155	=155	=155
8D\L	16bb\LL	.
.	16ccc\	.
8BJ 8G 8F\	16ddd\	.
.	16eee\JJ	.
8GG\L	8fff\L	.
8BJ 8G 8F\	8fff\J	.
=156	=156	=156
8C\L	8eee\L	.
8cJ 8G 8E\	16ccc\L	<
.	16ddd\JJ	.
4r	16eee\LL	.
.	16fff\	.
.	16ggg\	.
.	16aaa\JJ	[
=157	=157	=157
8r	8bbb-X\L	.
!	!LO:TUP:a:problem=klamra łukowa	!
8AL 8E 8C#X^>\	24aaa\L	.
.	24bbb-\	.
.	24aaa\JJ	.
8A 8F 8D^>\	8fff\L	.
8c#XJ 8G 8E^>\	8eee\J	.
=158	=158	=158
8dL 8A 8F^>\	8ddd\L	.
!	!LO:TUP:a:problem=klamra łukowa	!
8dJ 8A 8F#X^>\	24ccc\L	.
.	24ddd\	.
.	24ccc\JJ	.
4c 4F# 4D\	8bb\L	.
.	8aa\J	.
=159	=159	=159
4e 4c 4G^>\	8gg\L	.
.	(>16aa\L	.
.	16bb\JJ	.
4r	16ccc\LL	.
.	16ddd\	.
.	16eee\	.
.	16fff\JJ)	.
!!LO:LB:g=original
=160	=160	=160
2r	8gggL 8gg\	.
.	8ggg#XJ 8gg#X\	.
.	[>4aaa [<4aa^>\	.
=161	=161	=161
4e 4c#X 4A 4G^>\	8aaa]L 8aa\]	.
.	(>16aa\L	.
.	16bb\JJ	.
4r	16ccc#X\LL	.
.	16ddd\	.
.	16eee\	.
.	16fff\JJ	.
=162	=162	=162
4f 4d 4A 4F\	8aaa\L)	.
!	!LO:TUP:a:problem=klamra łukowa	!
.	24fff\L	.
.	24ggg\	.
.	24fff\JJ	.
4f 4d 4B 4G\	8eee\L	.
.	8ddd\J	.
=163	=163	=163
8C^>\L	8ccc 8gg 8ee 8cc^>\	.
!	!LO:TX:a:Bi:t=tranquillo	!
!	!	!LO:DY:b:rj
8c'>\J	8r	p
8B'>\L	8cc'>\L	.
8A'>\J	8ccc'>\J	.
=164	=164	=164
(>16G\LL	8bb'>\L	.
16A\	.	.
16G\	8aa'>\J	.
16F\JJ	.	.
8E\)	(>16gg\LL	.
.	16aa\	.
8r	16gg\	.
.	16ff\JJ)	.
!!LO:PB:g=original
=165	=165	=165
8r	8ee'>\L	.
8cL 8C'>\	8eee'>\J	.
8B 8BB'>\	8dddL 8dd\	.
8AJ 8AA'>\	8cccJ 8dd\	.
=166	=166	=166
4G 4GG\	(>16bbLL 16dd\	.
.	16ccc\	.
.	16bb\	.
.	16gg\JJ	.
4F#X 4FF#X\	8dd\L)	.
.	8ddd'>\J	.
=167	=167	=167
8GG\L	4bb 4dd\	.
8BJ 8D\	.	.
4r	8gg'>\L	.
.	8aa'>\J	.
=168	=168	=168
4r	8bb'>\L	.
.	8ccc'>\	.
(>4A 4D &(<4C\	8ddd'>\	.
.	8ff#X'>\J	.
=169	=169	=169
!LO:S:s=1:note:problem=note-level slur	!	!
!LO:S:s=3:note:problem=note-level slur	!	!
8G) 8D 8BB\&)	8gg'>\L	<
8r	8aa'>\J	[
4D#X 4DD#X/	8bbL 8ff#X 8b^>\	mf
.	8aa'>\J	.
=170	=170	=170
4E 4EE/	8ggL 8ee 8b'>\	.
.	8aa'>\J	.
4D#X 4DD#X/	8bbL 8ff#X 8b^>\	.
.	8aa'>\J	.
!!LO:LB:g=original
=171	=171	=171
4E 4EE/	8gg#XL 8ee 8b\	.
.	16ff#X\L	.
.	16gg#\JJ	.
4C 4CC/	8aaL 8ee 8a^>\	.
.	8ggn'>\J	.
=172	=172	=172
4D 4DD/	8ffnL 8dd 8a\	.
.	16ee\L	.
.	16ff\JJ	.
4B 4BB\	8ddL 8a\	.
.	8ff\J	.
=173	=173	=173
8EL 8EE'>\	4ee 4b 4g#X\	.
8eJ 8E'>\	.	.
8dL 8D'>\	4r	.
8cJ 8C'>\	.	.
=174	=174	=174
8BL 8BB'>\	4r	.
8AJ 8AA'>\	.	.
8G#XL 8GG#X'</	8ee'>\L	.
8EJ 8EE'</	8eee'>\J	.
=175	=175	=175
4F 4FF/	8ddd'>\L	.
.	8ccc'>\J	.
4B 4F 4D\	(>16bb\LL	.
.	16ccc\	.
.	16bb\	.
.	16aa\JJ	.
=176	=176	=176
4B 4G#X 4E\	8gg#X\L)	.
.	8ee'>\	.
4r	8gg#'>\	.
.	8aa'>\J	.
!!LO:LB:g=original
=177	=177	=177
(<16D#X/LL	4bb 4ff#X 4b\	.
16E/	.	.
16D#/	.	.
16C#X/JJ)	.	.
8BB'>\L	4bb 4ff# 4dd#X 4b\	.
8A'>\J	.	.
=178	=178	=178
8G#X'>\L	8.bbL 8.ee 8.b\	.
8F#X'>\J	.	.
.	16dd#X\Jk	.
8E'>\	(>16ff#X\LL	.
.	16ee\	.
8r	16gg#X\	.
.	16aa\JJ)	.
=179	=179	=179
(<16D#X/LL	4bb 4ff#X 4b\	.
16E/	.	.
16D#/	.	.
16C#X/JJ)	.	.
8BB\L	4bb 4ff# 4dd#X 4b\	.
8A'>\J	.	.
=180	=180	=180
8G#X'>\L	4ee 4b\	.
8Fn'>\J	.	.
8E'>\	(>16ee\LL	.
.	16gg#X\	.
8r	16bb\	.
.	16ccc\JJ)	.
=181	=181	=181
(>16F\LL	4ddd 4aa 4dd^>\	.
16Gn\	.	.
16F\	.	.
16E\JJ	.	.
8D\L)	4ddd 4aa 4dd^>\	.
8B'>\J	.	.
=182	=182	=182
4G#X\	8.dddL 8.bb 8.dd\	.
.	16ccc\Jk	.
4r	(>16bb\LL	.
.	16aa#X\	.
.	16bb\	.
.	16ccc\JJ)	.
!!LO:LB:g=original
=183	=183	=183
(>16F\LL	4ddd 4aa 4dd^>\	.
16G\	.	.
16F\	.	.
16E\JJ	.	.
8D\L)	4ddd 4aa 4ff 4dd^>\	.
8A'>\J	.	.
=184	=184	=184
4G#X\	8dddL 8bb 8dd\	.
.	8ee'>\J	.
4r	8gg#X'>\L	.
.	8ff'>\J	.
=185	=185	=185
4G#X 4GG#X/	(>8eeL 8b 8e\	.
.	8dd\J)	.
8AL 8AA/	8ccL 8a 8e'</	.
8FJ 8FF/	8ddJ 8a 8d'</	.
=186	=186	=186
4E 4EE/	(>8eeL 8g#X 8e\	.
.	8dd\J)	.
8AL 8AA/	8ccL 8a 8e'</	.
8FJ 8FF/	8ddJ 8a 8d'</	.
=187	=187	=187
!	!LO:TX:b:Bi:t=crescendo molto:problem=dynamics with extention lines	!
!	!	!LO:HP:b:Bi:t=crescendo molto:ext=s
4E 4EE/	4.ee 4.g#X 4.e/	<
8D#XL 8DD#X/	.	.
8D#J 8DD#X/	8ee 8e/	.
=188	=188	=188
4E 4EE/	4.ee 4.e/	.
8D#XL 8DD#X/	.	.
8D#J 8DD#/	8ee 8e/	.
=189	=189	=189
4E 4EE/	4.ee 4.g#X 4.e/	[
8DnL 8DDn/	.	.
8DJ 8DD/	8ee 8g# 8e/	.
!!LO:LB:g=original
=190	=190	=190
4E 4EE/	4.ee 4.g#X 4.e/	.
8DL 8DD/	.	.
8DJ 8DD/	8ee 8g# 8e/	.
=191	=191	=191
4E 4EE/	4.ee 4.a 4.e/	.
8CL 8CC/	.	.
8CJ 8CC/	8ee 8a 8e/	.
=192	=192	=192
4E 4EE/	4.ee 4.a 4.e/	.
8CL 8CC/	.	.
8CJ 8CC/	8ee 8a 8e/	.
=193	=193	=193
4E 4EE/	4.ee 4.dd 4.g#X 4.e/	.
8BBL 8BBB/	.	.
8BBJ 8BBB/	8ee 8dd 8g# 8e/	<
=194	=194	=194
4E 4EE/	4.ee 4.dd 4.g#X 4.e/	.
8BB-XL 8BBB-X/	.	.
8BB-J 8BBB-/	8ee 8dd 8g# 8e/	[
=195	=195	=195
4AA 4AAA/	8ee 8cc 8a 8e/	f
.	4ee 4e^</	.
8AA\L	.	.
8cJ 8E\	8aa 8a\	.
=196	=196	=196
8AA\L	8.aaL 8.a\	.
8dJ 8F\	.	.
.	16gg#XJk 16g#X\	.
8AA\L	8aaL 8a\	.
8dJ 8F\	8bbJ 8b\	.
!!LO:PB:g=original
=197	=197	=197
8AA\L	8.cccL 8.cc\	.
8cJ 8E\	.	.
.	16bbJk 16b\	.
8AA\L	8aaL 8a\	.
8BJ 8E\	8gg#XJ 8g#X\	.
=198	=198	=198
8AA\L	8bb 8b\	.
8cJ 8E\	4aa 4a\	.
8AA\L	.	.
8cJ 8E\	8r	.
=199	=199	=199
8AA\L	8ee 8cc 8e\	.
8cJ 8E\	4ee 4cc 4e^>\	.
8AA\L	.	.
8cJ 8E\	8aa 8a\	.
=200	=200	=200
8AA\L	8.cccL 8.aa 8.cc\	.
8dJ 8F\	.	.
.	16bbJk 16gg#X 16b\	.
8AA\L	8cccL 8aa 8cc\	.
8dJ 8F\	8dddJ 8bb 8dd\	.
=201	=201	=201
8AA\L	8.eeeL 8.ccc 8.ee\	.
8cJ 8E\	.	.
.	16dddJk 16bb 16dd\	.
8AA\L	8cccL 8aa 8cc\	.
8BJ 8E\	8bbJ 8gg#X 8b\	.
=202	=202	=202
8AA\L	8ddd 8bb 8dd\	.
8AJ 8E\	4ccc 4aa 4cc\	.
8AA\L	.	.
8cJ 8E\	8r	.
!!LO:LB:g=original
=203	=203	=203
8BB\L	8bb 8dd#X 8b\	.
8d#XJ 8B 8A 8F#X\	4bb 4dd# 4b^>\	.
8BB\L	.	.
8d#J 8B 8A 8F#\	8aa 8dd# 8a\	.
=204	=204	=204
8E 8EE/	8gg#XL 8ee 8g#X\	.
4e 4B 4G#X 4E\	16gg#L 16g#\	.
.	16aaJJ 16a\	.
.	4bb 4b\	.
8e 8B 8G# 8E\	.	.
=205	=205	=205
8E\L	8ff#XL 8f#X\	.
8d#XJ 8A 8F\	16ff#L 16f#\	.
!	!LO:TX:b:Bi:t=sosten.	!
.	16gg#XJJ 16g#X\	.
8E\L	16aaLL 16a\	.
.	16gg# 16g#\	.
8d#J 8A 8F\	16aa 16a\	.
.	16ff#JJ 16f#\	.
=206	=206	=206
8E\L	8gg#X 8g#X\	.
8eJ 8B 8G#X\	4bb 4b\	.
8E\L	.	.
8eJ 8B 8G#\	8r	.
=207	=207	=207
8BB\L	8bb 8dd#X 8b\	.
8d#XJ 8B 8F#X\	4bb 4dd# 4b^>\	.
8BB\L	.	.
8d#J 8B 8F#\	8aa 8a\	.
=208	=208	=208
8BB/	8gg#XL 8g#X\	.
4e 4B 4G#X\	16gg#L 16g#\	.
.	16bbJJ 16b\	.
.	4eee 4ee\	.
8e 8B 8G#\	.	.
!!LO:LB:g=original
=209	=209	=209
8BB/	8.ddd#XL 8.dd#X\	.
4d#X 4B 4F#X\	.	.
.	16eeeJk 16ee\	.
.	8fff#XL 8ff#X\	.
8d# 8B 8F#\	8bbJ 8b\	.
=210	=210	=210
8E\L	2eee 2ee\	.
8eJ 8B 8G#X\	.	.
8D\L	.	.
8eJ 8B 8G#\	.	.
=211	=211	=211
8C\L	8eee 8ee\	.
8eJ 8A\	4fff 4ff^>\	.
8C\L	.	.
8eJ 8A\	8eee 8ee\	.
=212	=212	=212
8D\	8.eeeL 8.ee\	.
4f 4B 4A\	.	.
.	16dddJk 16dd\	.
.	8bbL 8b\	.
8r	8ffJ 8f\	.
=213	=213	=213
8EL 8EE\	8eeL 8e\	.
8BJ 8G#X\	16gg#XL 16g#X\	.
.	16aaJJ 16a\	.
8E\L	8bbL 8b\	.
8BJ 8G#\	16cccL 16cc\	.
.	16dddJJ 16dd\	.
=214	=214	=214
8AA\L	8ddd 8dd\	.
8cJ 8E\	4ccc 4cc\	.
8AA\L	.	.
8cJ 8E\	8r	.
!!LO:LB:g=original
=215	=215	=215
8AA\L	8ccc 8cc\	.
8cJ 8F\	4ddd 4dd\	.
8AA\L	.	.
8cJ 8F\	8ccc 8cc\	.
=216	=216	=216
8GG/	8.cccL 8.cc\	.
4B-X 4F 4D\	.	.
.	16bb-XJk 16b-X\	.
.	8ggL 8g/	.
8B- 8F 8D\	8ddJ 8d/	.
=217	=217	=217
8CL 8CC\	8ccL 8c/	.
8B-XJ 8E\	16eeL 16e/	.
.	16ffJJ 16f/	.
8C\L	8ggL 8g\	.
8B-J 8E\	16aaL 16a\	.
.	16bb-XJJ 16b-X\	.
=218	=218	=218
8FF\L	8bb-X 8b-X\	.
8AJ 8C\	4aa 4a\	.
8FF\L	.	.
8AJ 8C\	8r	.
=219	=219	=219
8D 8DD/	8aa 8ff\	.
4f 4B 4A^>\	4bbn 4bn^>\	.
8f 8B 8A\	8aa 8ff\	.
=220	=220	=220
8E 8EE/	8bb 8cc\	.
4e 4c 4A^>\	4aa 4ee^>\	.
8e 8c 8A\	8ccc 8cc\	.
!!LO:LB:g=original
=221	=221	=221
8EL 8EE\	8.bbL 8.b\	.
8dJ 8G#X\	.	.
.	16gg#XJk 16g#X\	.
8E\L	8eeL 8e\	.
8dJ 8G#\	8dddJ 8dd\	.
=222	=222	=222
8AA\L	8ccc 8cc\	.
8cJ 8E\	4aa 4a\	.
8AA\L	.	.
8cJ 8E\	8r	.
=223	=223	=223
8D 8DD/	8aa 8ff\	.
4f 4B 4A\	4bb 4dd\	.
8f 8B 8A\	8aa 8ff\	.
=224	=224	=224
8E 8EE/	8bb 8cc\	.
4e 4c 4A\	4aa 4ee\	.
8e 8c 8A\	8fff 8ff\	.
=225	=225	=225
8.dL 8.B 8.E\	8.eeeL 8.gg#X 8.ee\	.
16dJk 16G#X 16E\	16dddJk 16dd\	.
8dL 8G# 8E\	8cccL 8cc\	.
8dJ 8G# 8E\	8bbJ 8b\	.
=226	=226	=226
!	!LO:TX:a:t=P:problem=w źródle zmiana znaków przykluczowych zaznaczona jeszcze przed łamaniem systemu	!
2r;>	2r;>	.
!!LO:PB:g=original
=227||	=227||	=227||
*k[f#c#g#]	*k[f#c#g#]	*
4AA 4AAA^</	4r	f
*	*clefF4	*
!	!LO:TX:b:Bi:t=tenuto	!
4r	4e 4c# 4A 4E^>\	.
=228	=228	=228
4AA 4AAA^</	4r	.
4r	4e 4c# 4A 4E^>\	.
=229	=229	=229
4AA 4AAA/	16eLL 16c# 16A 16E^>\	.
.	16eJ 16c# 16A 16E\	.
.	8eJ 8c# 8A 8E\	.
4AA 4AAA/	8r	.
.	8e 8c# 8A 8E\	.
=230	=230	=230
4AA 4AAA/	16eLL 16c# 16A 16E^>\	.
.	16eJ 16c# 16A 16E\	.
.	8eJ 8c# 8A 8E\	.
4AA 4AAA/	8r	.
!	!LO:TX:a:Bi:t=marcato e risoluto.:dur=5e:ext=s:problem=text with extention lines	!
.	16E\LL	.
.	16F#\JJ	.
=231	=231	=231
8AAA/L	16G#\LL	.
.	16A\	.
8BBJ 8EE/	16B\	.
.	16c#\JJ	.
8AAA/L	8d\L	.
8BBJ 8EE/	8d\J	.
=232	=232	=232
8AAA/L	8c#\L	.
!	!LO:TUP:a:problem=klamra łukowa	!
8C#J 8EE/	24c#\L	.
.	24d\	.
.	24c#\JJ	.
8AAA/L	8B\L	.
8C#J 8EE/	8A\J	.
!!LO:LB:g=original
=233	=233	=233
8AAA/L	8G#\L	.
!	!LO:TUP:a:problem=klamra łukowa	!
8DJ 8EE/	24G#\L	.
.	24A\	.
.	24G#\JJ	.
8AAA/L	8F#\L	.
8DJ 8EE/	8E\J	.
=234	=234	=234
8AAA/L	16G#^>\LL	.
.	16F#\JJ	.
8C#J 8EE/	4E\	.
8AAA/L	.	.
8C#J 8EE/	16E\LL	.
.	16F#\JJ	.
=235	=235	=235
8AAA/L	16G#\LL	.
.	16A\	.
8BBJ 8EE/	16B\	.
.	16c#\JJ	.
8AAA/L	8d\L	.
8BBJ 8EE/	8d\J	.
=236	=236	=236
8AAA/L	8c#\L	.
!	!LO:TUP:a:problem=klamra łukowa	!
8C#J 8EE/	24c#\L	.
.	24d\	.
.	24c#\JJ	.
8AAA/L	8B\L	.
8C#J 8EE/	8A\J	.
=237	=237	=237
8AAA/L	8G#\L	.
!	!LO:TUP:a:problem=klamra łukowa	!
8DJ 8EE/	24A\L	.
.	24B\	.
.	24A\JJ	.
8AAA/L	8F#\L	.
8DJ 8EE/	8G#\J	.
!!LO:LB:g=original
=238	=238	=238
8AAA/L	16c#^>\LL	.
.	16B\JJ	.
8C#J 8EE/	4A\	.
8AAA/	.	.
*	*clefG2	*
!	!LO:TX:a:Bi:t=legierro	!
8r	(<16e/LL	mp
.	16f#/JJ	.
=239	=239	=239
8BB/	16g#/LL	.
.	16a/	.
4d 4G# 4E\	16b/	.
.	16cc#/JJ)	.
.	8dd'>\L	.
8EE/	8dd'>\J	.
=240	=240	=240
8AA/	8cc#\L	.
4c# 4A 4E\	24cc#\L	.
!	!LO:TUP:a:problem=klamra łukowa	!
.	24dd\	.
.	24cc#\JJ	.
.	8b'</L	.
8EE/	8a'</J	.
=241	=241	=241
8BB/	8g#/L	.
!	!LO:TUP:a:problem=klamra łukowa	!
4d 4G# 4E\	24g#/L	.
.	24a/	.
.	24g#/JJ	.
.	8f#'</L	.
8EE/	8e'</J	.
=242	=242	=242
8AA/	(<16g#/LL	.
.	16f#/JJ	.
4c# 4A 4E\	4e/)	.
8EE/	(<16e/LL	.
.	16f#/JJ	.
!!LO:LB:g=original
=243	=243	=243
8BB/	16g#/LL	.
.	16a/	.
4d 4G# 4E\	16b/	.
.	16cc#/JJ	.
.	8dd\L)	.
8EE/	8dd\J	.
=244	=244	=244
8AA/	8cc#\L	.
!	!LO:TUP:a:problem=klamra łukowa	!
4c# 4A 4E\	24cc#\L	.
.	24dd\	.
.	24cc#\JJ	.
.	8a/L	.
8r	(>16g#X/L	.
.	16a#X/JJ	.
=245	=245	=245
4GG#/	16b#X\LL	.
.	16cc#\	.
.	16dd#X\	.
.	16ee#X\JJ)	.
4f# 4B#X 4G#\	8ff#\L	.
.	8ff#\J	.
=246	=246	=246
4C#/	8ee#X\L	.
!	!LO:TUP:a:problem=klamra łukowa	!
.	24ee#\L	.
.	24ff#\	.
.	24ee#\JJ	.
4e#X 4G#\	8cc#\L	.
.	(>16dd#X\L	.
.	16ee#\JJ	.
=247	=247	=247
4C#/	8ff#\L)	.
!	!LO:TUP:a:problem=klamra łukowa	!
.	24ff#\L	.
.	24gg#\	.
.	24ff#\JJ	.
4f# 4A\	16dd#X'>\LL	.
.	16ee#X'>\	.
.	16ff#X'>\	.
.	16aa'>\JJ	.
!!LO:LB:g=original
=248	=248	=248
8c#\	8gg#'>\L	.
.	(<8qbb#X/	.
4e#X 4G#\	8ccc#'>\J)	.
.	(>16aa\LL	.
.	16gg#\J	.
8f# 8A\	8ff#\J)	.
=249	=249	=249
8C#/	8ee#X'>\L	.
.	(<8qff##X/	.
4e#X 4G#\	8gg#'>\J)	.
.	(>16aa\LL	.
.	16gg#\	.
!	!LO:N:acc=n#	!
8f# 8A\	16ffn#X\	.
.	16aa\JJ)	.
=250	=250	=250
8En\L	8bb'>\L	.
.	(<8qddd#X/	.
8eJ 8B 8G#\	8eee'>\J)	.
8E\L	(>16ccc#\LL	.
.	16bb\J	.
8eJ 8c# 8A\	8aa\J)	.
=251	=251	=251
8E\L	8gg#'>\L	.
.	(<8qaa#X/	.
8eJ 8B 8G#\	8bb'>\J)	.
8E\L	(>16aan\LL	.
.	16gg#\	.
8eJ 8A 8F#\	16aa\	.
.	16ff#\JJ)	.
=252	=252	=252
4e 4B 4G# 4E\	8ee\	.
.	4ee\	.
4r	.	.
.	[>8eee\	.
!!LO:PB:g=original
=253	=253	=253
4e 4B 4G# 4E\	8eee\]	.
!	!	!LO:HP:b:Bi:t=cresc.
.	4ee\	<
4r	.	.
.	[>8eee [<8ee\	.
=254	=254	=254
4e 4B 4G# 4E\	8eee] 8ee\]	.
.	4ee\	.
4r	.	.
.	[>8ee [<8e\	.
=255	=255	=255
2r	8ee] 8e\]	.
.	4ee 4e\	.
.	(>16ee\LL	.
.	16ff#\JJ	.
=256	=256	=256
8BB/	16gg#\LL	f
.	16aa\	.
4d 4G# 4E\	16bb\	.
.	16ccc#\JJ	.
.	8ddd\L)	.
8EE/	8ddd'>\J	.
=257	=257	=257
8AA/	8ccc#\L	.
!	!LO:TUP:a:problem=klamra łukowa	!
4c# 4A 4E\	24ccc#\L	.
.	24ddd\	.
.	24ccc#\JJ	.
.	8bb'>\L	.
8EE/	8aa'>\J	.
!!LO:LB:g=original
=258	=258	=258
8BB/	8gg#\L	.
!	!LO:TUP:a:problem=klamra łukowa	!
4d 4G# 4E\	24gg#\L	.
.	24aa\	.
.	24gg#\JJ	.
.	8ff#\L	.
8EE/	8ee\J	.
=259	=259	=259
8AA/	16gg#^>\LL	.
.	16ff#\JJ	.
4c# 4A 4E\	4ee\	.
8EE/	16ee\LL	.
.	16ff#\JJ	.
=260	=260	=260
8BB/	16gg#\LL	.
.	16aa\	.
4d 4G# 4E\	16bb\	.
.	16ccc#\JJ	.
.	8ddd\L	.
8EE/	8ddd\J	.
=261	=261	=261
8AA/	8ccc#\L	.
!	!LO:TUP:a:problem=klamra łukowa	!
8r	24ccc#\L	.
.	24ddd\	.
.	24ccc#\JJ	.
8d#XL 8D#X\	8bb\L	.
8dnJ 8Dn^>\	8fff#J 8bb 8gg#^>\	.
=262	=262	=262
8c#L 8C#^>\	8eee#XL 8bb 8gg#^>\	.
8F#J 8FF#^>\	8eeenJ 8aa 8ff#^>\	.
8BL 8BB^>\	8ddd#XL 8aa 8ff#^>\	.
8EJ 8EE^>\	8dddnJ 8gg# 8een^>\	.
!!LO:LB:g=original
=263	=263	=263
8E#XL 8EE#X\	8ccc#L 8gg# 8cc#\	.
8G#J 8GG#\	8bbJ 8ee#X 8cc#\	.
8F#L 8FF#\	8aaL 8ff# 8cc#\	.
8D#XJ 8DD#X\	16aaL 16ff# 16cc#\	.
.	16bb\JJ	.
=264	=264	=264
8En 8EEn/	8ccc#L 8aa 8cc#\	.
8r	(>16bb\L	.
.	16aa\JJ)	.
8c#L 8A 8E\	8ccc#\L	.
8c#J 8A 8D#X\	(>16bb\L	.
.	16aa\JJ)	.
=265	=265	=265
8c#L 8A 8E\	8ccc#\L	.
8c#J 8A 8D#X\	(>16bb\L	.
.	16aa\JJ)	.
8c#L 8A 8E\	8ccc#\L	.
8c#J 8A 8D#\	(>16bb\L	.
.	16aa\JJ)	.
=266	=266	=266
4c# 4A 4E\	8ccc#\L	.
.	(>16aa\L	.
.	16bb\JJ	.
4r	8ccc#\L)	.
.	(>16ggg#\L	.
.	16fff#\JJ	.
=267	=267	=267
4d 4G# 4E\	8eee\L)	.
.	16ddd'>\L	.
.	16ccc#'>\JJ	.
4r	(>16bb\LL	.
.	16ee\)	.
.	16bb'>\	.
.	16ccc#'>\JJ	.
!!LO:LB:g=original
=268	=268	=268
8AA\L	4aa\	.
8c#J 8E\	.	.
8AA\L	8r	.
8c#J 8E\	(>16gg#\LL	.
.	16aa\JJ	.
=269	=269	=269
8AA\L	16bb\LL	.
.	16ccc#\	.
8dJ 8E\	16ddd\	.
.	16eee\JJ	.
8AA\L	8fff#\L)	.
8dJ 8E\	8fff#'>\J	.
=270	=270	=270
8AA\L	8eee\L	.
!	!LO:TUP:a:problem=klamra łukowa	!
8c#J 8E\	24eee\L	.
.	24fff#\	.
.	24eee\JJ	.
8AA\L	8ccc#\L	.
8c#J 8E\	(>16gg#\L	.
.	16aa\JJ	.
=271	=271	=271
8AA\L	16bb\LL	.
.	16ccc#\	.
8dJ 8E\	16ddd\	.
.	16eee\JJ)	.
8AA\L	8fff#\L	.
8dJ 8E\	(>16gg#\L	.
.	16aa\JJ	.
=272	=272	=272
8AA\L	16bb\LL	.
.	16ccc#\	.
8dJ 8E\	16ddd\	.
.	16eee\JJ	.
8AA\L	8fff#\L)	.
8dJ 8E\	16bb'>\L	.
.	16ccc#'>\JJ	.
!!LO:LB:g=original
=273	=273	=273
4AA/	(>16ddd\LL	.
.	16eee\J	.
.	8fff#\J)	.
4d 4G# 4E\	(>16dddLL 16bb\	.
.	16eee\J	.
.	8fff#\J)	.
=274	=274	=274
4d 4G# 4E\	(>16dddLL 16bb\	.
.	16eee\J)	.
.	8fff#\J	.
4d 4G# 4E\	(>16dddLL 16bb\	.
.	16eee\J	.
.	8fff#\J)	.
=275	=275	=275
4A 4AA\	8eeeL 8ccc#\	.
!	!LO:TUP:a:problem=klamra łukowa	!
.	24fff#\L	.
.	24ggg#\	.
.	24fff#\JJ	.
4r	8eee\L	.
!	!LO:TUP:a:problem=klamra łukowa	!
.	24fff#\L	.
.	24ggg#\	.
.	24fff#\JJ	.
*clefG2	*	*
=276	=276	=276
4a 4e 4c# 4A^</	8eee\L	.
!	!LO:TUP:a:problem=klamra łukowa	!
.	24fff#\L	.
.	24ggg#\	.
.	24fff#\JJ	.
4r	8eee\L	.
!	!LO:TUP:a:problem=klamra łukowa	!
.	24fff#\L	.
.	24ggg#\	.
.	24fff#\JJ	.
!!LO:PB:g=original
=277	=277	=277
8ee 8cc# 8a\	8eee\	.
4ee 4cc#^>\	4aaa 4aa^>\	.
[>8ee [<8cc#^>\	[>8aaa [<8aa^>\	.
=278	=278	=278
8ee] 8cc#\]	8aaa] 8aa\]	.
4ee 4cc#^>\	4aaa^>\	.
8r	(>16aa\LL	.
.	16bb\JJ	.
*clefF4	*	*
=279	=279	=279
4AA 4AAA/	16ccc#\LL	.
.	16ddd\	.
.	16eee\	.
.	16fff#\JJ	.
4gn 4c# 4A\	8gggn\L)	.
.	(>16gg#\L	.
.	16aa\JJ	.
=280	=280	=280
4AA 4AAA/	16bb\LL	.
.	16ccc#\	.
.	16ddd\	.
.	16eee\JJ	.
4f# 4d 4A\	8fff#\L)	.
.	(>16ee\L	.
.	16ff#\JJ	.
!!LO:LB:g=original
=281	=281	=281
4AA 4AAA/	16gg#\LL	.
.	16aa\	.
.	16bb\	.
.	16ccc#\JJ	.
4d 4G# 4E\	8ddd\L)	.
.	(>16dd#X\L	.
.	16ee\JJ	.
=282	=282	=282
4AA 4AAA/	16ff#\LL	.
.	16gg#\	.
.	16aa\	.
.	16bb\JJ	.
4c# 4A 4E\	8ccc#\L)	.
.	(>16aa\L	.
.	16bb\JJ	.
=283	=283	=283
8AL 8E 8C# 8AA\	8ccc#\L)	.
8A 8F# 8D 8AA\	(>16aa\L	.
.	16bb\JJ	.
8A 8E 8C# 8AA\	8ccc#\L)	.
8AJ 8F# 8D 8AA\	(>16aa\L	.
.	16bb\JJ	.
=284	=284	=284
8AL 8E 8C# 8AA\	8ccc#\L)	.
8A 8F# 8D 8AA\	(>16aa\L	.
.	16bb\JJ	.
8A 8E 8C# 8AA\	8ccc#\L)	.
8AJ 8F# 8D 8AA\	(>16aa\L	.
.	16bb\JJ	.
=285	=285	=285
4A 4E 4C# 4AA\	4ccc#\)	.
4r	4r	.
!!LO:LB:g=original
=286	=286	=286
4E 4EE^>/	4eee 4ddd 4gg# 4ee^>\	.
4r	4r	.
=287	=287	=287
4A 4E 4C# 4AA^>\	4ccc# 4aa 4ee 4cc#^>\	.
8r	8r	.
8AA 8AAA/	8a 8A/	.
=288	=288	=288
8AAL 8AAA/	8aL 8A/	.
8AA 8AAA/	8a 8A/	.
8AA 8AAA/	8a 8A/	.
8AAJ 8AAA/	8aJ 8A/	.
=289	=289	=289
*tremolo	*	*
!LO:TX:a:t=P:problem=w źródle tremolo oznaczone jako półnuty połączone potrójną belką	!	!
32AAA/LLL	2a [<2A/	.
32AA/	.	.
32AAA/	.	.
32AA/	.	.
32AAA/	.	.
32AA/	.	.
32AAA/	.	.
32AA/JJJ	.	.
!LO:TX:a:t=P:problem=w źródle tremolo oznaczone jako półnuty połączone potrójną belką	!	!
32AAA/LLL	.	.
32AA/	.	.
32AAA/	.	.
32AA/	.	.
32AAA/	.	.
32AA/	.	.
32AAA/	.	.
32AA/JJJ	.	.
=290	=290	=290
!LO:TX:a:t=P:problem=w źródle tremolo oznaczone jako półnuty połączone potrójną belką	!	!
32AAA/LLL	2a 2A/]	.
32AA/	.	.
32AAA/	.	.
32AA/	.	.
32AAA/	.	.
32AA/	.	.
32AAA/	.	.
32AA/JJJ	.	.
!LO:TX:a:t=P:problem=w źródle tremolo oznaczone jako półnuty połączone potrójną belką	!	!
32AAA/LLL	.	.
32AA/	.	.
32AAA/	.	.
32AA/	.	.
32AAA/	.	.
32AA/	.	.
32AAA/	.	.
32AA/JJJ	.	.
*Xtremolo	*	*
=291	=291	=291
4AA 4AAA/	4aa 4ee 4cc# 4a\	sfz
4r	4r	.
==	==	==
*-	*-	*-
!!!system-decoration: {(s1,s2)}
!!!RDF**kern: > = above
!!!RDF**kern: < = below
!!!RDF**dynam: > = "dim", fontstyle= "bold-italic"
!!!RDF**dynam: < = "crescendo", fontstyle= "bold-italic"
!!!RDF**kern: | = vertical stroke
!!!RDF**kern: N = linked
!!!RDF**kern: i = editorial accidental
!!!EED: Wojciech Jakubiak-Danek
!!!EEV: 2021-06-02
!!!ENC: Marcin Jachim
!!!END: 2021-05-02
